X:1
T:Title
%%score { ( 1 3 ) | ( 2 4 ) }
L:1/8
Q:1/4=106
M:4/4
K:G
V:1 treble nm="Grand Piano"
V:3 treble 
V:2 bass 
V:4 bass 
V:1
 [B,G]2 [G,B,D]2 [G,CE]2 [G,D]2 | C-[CF] [B,G]2 A2 G2 | d2 B2 A2 GF | E2 z2[K:bass] z4 | %4
w: Hubert~P.~Main * * *||||
 [G,DG]2 [G,B,D]2 [G,CE]2 [G,D]2 | C2[K:treble] z2 z2 B2 | [Ee]2 [Ed]2 [Ec]2 E-[CEA] | %7
w: |||
 [B,DG]2 [CFA]2 [B,G]4 | [DFA]2 [Fd]2 [EG^c]2 [DGB]2 | A4 z4 | z4 F4[K:bass][K:treble] | %11
w: ||||
 [^CA]2[K:bass] z2 z4 | [G,DG]2 [G,B,D]2[K:bass] [G,CE]2 [G,D]2 | C2[K:treble] z2 z2 B2 | %14
w: |||
 [Ee]2 [Ed]2 [Ec]2 E-[CEA] | [B,DG]2 [CFA]2 [B,G]4 |] %16
w: ||
V:2
 [G,,D,]2 G,,2 C,2 B,,2 | z D, [G,,D,]2 [D,F,C]2 [G,B,]2 | [F,A,D]2 [G,D]2 [F,CD]2 [G,B,D]2 | %3
 .[A,D]2 z G, D,2 C,2 | B,,2 G,,2 C,2 B,,2 | z D, [G,,D,]2 [D,F,D]2 .[G,D]2 | %6
 [C,G,]2 [B,,^G,]2 [A,,A,]2 B,,C, | D,2 D,2 G,4 | D,2 [D,A,]2 A,,2 A,,2 | A,,2 B,,^C, D,2 E,2 | %10
 [F,A,]2 [^C,A,]2 [A,D]3 [_B,,E,] | .[A,,E,]2 z ^C D,2 C,2 | B,,2 G,,2 C,2 B,,2 | %13
 z D, [G,,D,]2 [D,F,D]2 .[G,D]2 | [C,G,]2 [B,,^G,]2 [A,,A,]2 B,,C, | D,2 D,2 G,,4 |] %16
V:3
 x8 | .[E,E]2 z2 z4 | x8 | z B, .[A,^CF]2[K:bass] [F,D]4 | x8 | [E,E][K:treble]F [B,G]2 A2 z =F | %6
 z4 z2 .[DB]2 | x8 | x8 | [^CG]2 [DF][A,EG] [A,DF]2 [A,CA]2 | %10
 [Dd]2 [EA]2 z2[K:bass] B,,[K:treble][DG] | z[K:bass] F, .[B,A]2 [F,D]4 | x4[K:bass] x4 | %13
 [E,E][K:treble]F [B,G]2 A2 z =F | z4 z2 .[DB]2 | x8 |] %16
V:4
 x8 | A,,2 z2 z4 | x8 | z2 A,,2 z4 | x8 | A,,2 z2 z4 | x8 | x8 | x8 | x8 | z4 D,2 z2 | %11
 z2 [A,,G,]2 z4 | x8 | A,,2 z2 z4 | x8 | x8 |] %16

